X:279
T:Lonesome Fiddle Blues
C:arr. Mac Billings
N:Transcribed by Kim Davis
R:bluegrass
L:1/8
Q:1/4=220
M:4/4
K:C
z8 | z8 | D^C DE FE FG | AG FE DE FD | CB, CD ED EG | AG ^F=F ED C^C | D^C DE FE FG | 
AG FE DE FD | FG Ae fe dc | AG EC D4 | D^C DE FE FG | AG FE DE FD | CB, CD ED EF | 
G^F =FE DC A,G, | D^C DE FE FG | AG FE D2 DE | FG Ae fe dc | AG EC D2 E^F | G,A, _B,=B, DE F^F | 
G^F GA BA GB | A^F GE FD EC | DC B,C A,G, CG, | E^F ^G,A, B,^C D^D | E^D EG AG ^FA | 
G^F EG FE DF | ED C^C A,4 | D^C DE FE FG | AG FE DF ED | CE F^F G,A, _B,=B, | 
CD ED FE C^C | D^C DE FE FG | AG FE D2 DE | FG Ae fe dc | AG FE D4 | z8 | 


